ui/StatusQ/src/assets/img/icons/homepage/browser.svg

<svg fill="none" height="24" viewBox="0 0 24 24" width="24" xmlns="http://www.w3.org/2000/svg"><path clip-rule="evenodd" d="m3.20005 12c0-4.8601 3.93989-8.8 8.79995-8.8 4.8602 0 8.8 3.9399 8.8 8.8s-3.9398 8.8-8.8 8.8c-4.86006 0-8.79995-3.9399-8.79995-8.8zm8.79995-10.2c-5.63326 0-10.19995 4.5667-10.19995 10.2s4.56669 10.2 10.19995 10.2c5.6334 0 10.2-4.5667 10.2-10.2s-4.5666-10.2-10.2-10.2zm-.7452 7.41672c-.256.13475-.4796.26364-.6669.38166l3.8147 3.81402c.118-.1872.2468-.4106.3814-.6665.3156-.5996.6334-1.3198.8873-2.0391.2557-.72475.4358-1.41855.4941-1.97249.0291-.27724.0247-.49205-.0019-.64536-.0239-.13777-.058-.18395-.0623-.18944-.0054-.00425-.0516-.03835-.1894-.06225-.1533-.0266-.3681-.03105-.6454-.00188-.5539.05827-1.2477.23834-1.9724.49409-.7194.25385-1.4395.57166-2.0392.88725zm-2.03779 2.03778c.13456-.2556.26328-.4788.38116-.666l3.81453 3.8138c-.1873.118-.4107.2468-.6665.3814-.5998.3157-1.32.6337-2.0395.8876-.72489.2559-1.41884.4361-1.97288.4945-.2773.0292-.49214.0248-.64548-.0018-.13766-.0239-.18386-.0579-.18939-.0622-.00427-.0055-.03833-.0517-.06219-.1894-.02658-.1533-.031-.3682-.00179-.6455.05836-.554.23856-1.248.49444-1.9728.25397-.7195.57192-1.4398.8876-2.0396zm6.93409-4.79664c.3209.05567.6695.18096.9402.45163.2706.27067.3959.61927.4516.94016.0563.3245.0519.67866.0148 1.03113-.0742.7055-.2918 1.51412-.5662 2.29192-.2764.7831-.6213 1.5655-.9686 2.2252-.3372.6408-.7087 1.2283-1.0524 1.5721-.3438.3438-.9314.7153-1.5722 1.0526-.6599.3473-1.4423.6924-2.2256.9689-.7779.2746-1.58664.4923-2.29222.5666-.35252.0371-.70672.0416-1.03125-.0147-.32092-.0556-.66959-.1809-.9403-.4516-.27072-.2707-.39597-.6194-.4516-.9403-.05625-.3245-.05179-.6787-.01466-1.0312.07432-.7056.292-1.5144.56657-2.2922.27649-.7833.62159-1.5658.96891-2.2256.33732-.6409.70884-1.22844 1.05261-1.57221.34379-.34379.93127-.71524 1.57204-1.05247.6598-.34723 1.4421-.6922 2.2253-.96856.7777-.27445 1.5864-.49199 2.2919-.5662.3524-.03708.7066-.04149 1.0311.0148z" fill="#09101c" fill-rule="evenodd"/></svg>

<svg width="24" height="24" viewBox="0 0 24 24" fill="none" xmlns="http://www.w3.org/2000/svg">
<g id="24/browser">
<path id="body" fill-rule="evenodd" clip-rule="evenodd" d="M3.20005 12C3.20005 7.1399 7.13994 3.2 12 3.2C16.8602 3.2 20.8 7.1399 20.8 12C20.8 16.8601 16.8602 20.8 12 20.8C7.13994 20.8 3.20005 16.8601 3.20005 12ZM12 1.8C6.36674 1.8 1.80005 6.3667 1.80005 12C1.80005 17.6333 6.36674 22.2 12 22.2C17.6334 22.2 22.2 17.6333 22.2 12C22.2 6.3667 17.6334 1.8 12 1.8ZM11.2548 9.21672C10.9988 9.35147 10.7752 9.48036 10.5879 9.59838L14.4026 13.4124C14.5206 13.2252 14.6494 13.0018 14.784 12.7459C15.0996 12.1463 15.4174 11.4261 15.6713 10.7068C15.927 9.98205 16.1071 9.28825 16.1654 8.73431C16.1945 8.45707 16.1901 8.24226 16.1635 8.08895C16.1396 7.95118 16.1055 7.905 16.1012 7.89951C16.0958 7.89526 16.0496 7.86116 15.9118 7.83726C15.7585 7.81066 15.5437 7.80621 15.2664 7.83538C14.7125 7.89365 14.0187 8.07372 13.294 8.32947C12.5746 8.58332 11.8545 8.90113 11.2548 9.21672ZM9.21701 11.2545C9.35157 10.9989 9.48029 10.7757 9.59817 10.5885L13.4127 14.4023C13.2254 14.5203 13.002 14.6491 12.7462 14.7837C12.1464 15.0994 11.4262 15.4174 10.7067 15.6713C9.98181 15.9272 9.28786 16.1074 8.73382 16.1658C8.45652 16.195 8.24168 16.1906 8.08834 16.164C7.95068 16.1401 7.90448 16.1061 7.89895 16.1018C7.89468 16.0963 7.86062 16.0501 7.83676 15.9124C7.81018 15.7591 7.80576 15.5442 7.83497 15.2669C7.89333 14.7129 8.07353 14.0189 8.32941 13.2941C8.58338 12.5746 8.90133 11.8543 9.21701 11.2545ZM16.1511 6.45786C16.472 6.51353 16.8206 6.63882 17.0913 6.90949C17.3619 7.18016 17.4872 7.52876 17.5429 7.84965C17.5992 8.17415 17.5948 8.52831 17.5577 8.88078C17.4835 9.58628 17.2659 10.3949 16.9915 11.1727C16.7151 11.9558 16.3702 12.7382 16.0229 13.3979C15.6857 14.0387 15.3142 14.6262 14.9705 14.97C14.6267 15.3138 14.0391 15.6853 13.3983 16.0226C12.7384 16.3699 11.956 16.715 11.1727 16.9915C10.3948 17.2661 9.58606 17.4838 8.88048 17.5581C8.52796 17.5952 8.17376 17.5997 7.84923 17.5434C7.52831 17.4878 7.17964 17.3625 6.90893 17.0918C6.63821 16.8211 6.51296 16.4724 6.45733 16.1515C6.40108 15.827 6.40554 15.4728 6.44267 15.1203C6.51699 14.4147 6.73467 13.6059 7.00924 12.8281C7.28573 12.0448 7.63083 11.2623 7.97815 10.6025C8.31547 9.9616 8.68699 9.37406 9.03076 9.03029C9.37455 8.6865 9.96203 8.31505 10.6028 7.97782C11.2626 7.63059 12.0449 7.28562 12.8281 7.00926C13.6058 6.73481 14.4145 6.51727 15.12 6.44306C15.4724 6.40598 15.8266 6.40157 16.1511 6.45786Z" fill="#09101C"/>
</g>
</svg>
